flaticon/interaction/music-player-12.svg

<svg xmlns="http://www.w3.org/2000/svg" width="32" height="32" viewBox="0 0 24 24">
    <path d="M 21.632812 13.132812 C 21.148438 12.652344 20.367188 12.652344 19.886719 13.132812 L 13.515625 19.503906 L 12.636719 22.722656 L 12.421875 22.9375 C 12.261719 23.097656 12.261719 23.355469 12.421875 23.515625 L 12.417969 23.523438 L 12.425781 23.523438 C 12.507812 23.601562 12.613281 23.640625 12.714844 23.640625 C 12.820312 23.640625 12.929688 23.601562 13.007812 23.519531 L 13.222656 23.304688 L 16.441406 22.429688 L 22.8125 16.058594 C 23.292969 15.578125 23.292969 14.792969 22.8125 14.3125 Z M 14.472656 19.71875 L 18.710938 15.480469 L 20.464844 17.234375 L 16.226562 21.472656 Z M 14.097656 20.515625 L 15.429688 21.847656 L 13.597656 22.347656 Z M 22.226562 15.472656 L 21.050781 16.648438 L 19.292969 14.894531 L 20.46875 13.71875 C 20.628906 13.558594 20.886719 13.558594 21.046875 13.71875 L 22.226562 14.898438 C 22.382812 15.058594 22.382812 15.316406 22.226562 15.472656 Z M 22.226562 15.472656"/>
    <path d="M 23.585938 0.359375 L 0.414062 0.359375 C 0.183594 0.359375 0 0.542969 0 0.773438 L 0 20.21875 C 0 20.449219 0.183594 20.632812 0.414062 20.632812 L 11.585938 20.632812 C 11.816406 20.632812 12 20.449219 12 20.21875 C 12 19.992188 11.816406 19.804688 11.585938 19.804688 L 0.828125 19.804688 L 0.828125 1.183594 L 23.171875 1.183594 L 23.171875 13.183594 C 23.171875 13.414062 23.359375 13.597656 23.585938 13.597656 C 23.816406 13.597656 24 13.414062 24 13.183594 L 24 0.773438 C 24 0.542969 23.816406 0.359375 23.585938 0.359375 Z M 23.585938 0.359375"/>
    <path d="M 14.625 10.699219 C 13.183594 10.699219 12.007812 11.765625 12.007812 13.070312 C 12.007812 13.714844 12.285156 14.316406 12.789062 14.765625 C 12.867188 14.835938 12.96875 14.871094 13.066406 14.871094 C 13.179688 14.871094 13.292969 14.824219 13.375 14.730469 C 13.527344 14.5625 13.511719 14.300781 13.339844 14.148438 C 13.015625 13.855469 12.835938 13.476562 12.835938 13.070312 C 12.835938 12.21875 13.636719 11.527344 14.625 11.527344 C 15.089844 11.527344 15.53125 11.683594 15.871094 11.96875 C 16.046875 12.117188 16.308594 12.09375 16.453125 11.917969 C 16.53125 11.828125 16.558594 11.707031 16.542969 11.597656 C 16.546875 11.585938 16.550781 11.574219 16.550781 11.558594 L 16.550781 4.523438 C 16.550781 4.40625 16.5 4.292969 16.410156 4.214844 C 16.320312 4.136719 16.199219 4.097656 16.082031 4.113281 L 8.636719 5.09375 C 8.429688 5.121094 8.277344 5.296875 8.277344 5.503906 L 8.277344 13.546875 C 7.792969 13.125 7.136719 12.863281 6.414062 12.863281 C 4.929688 12.863281 3.722656 13.957031 3.722656 15.300781 C 3.722656 16.644531 4.929688 17.738281 6.414062 17.738281 C 7.898438 17.738281 9.101562 16.644531 9.101562 15.300781 L 9.101562 7.9375 L 15.722656 7.066406 L 15.722656 10.929688 C 15.382812 10.785156 15.011719 10.699219 14.625 10.699219 Z M 6.414062 16.910156 C 5.386719 16.910156 4.550781 16.1875 4.550781 15.300781 C 4.550781 14.414062 5.386719 13.691406 6.414062 13.691406 C 7.441406 13.691406 8.277344 14.414062 8.277344 15.300781 C 8.277344 16.1875 7.441406 16.910156 6.414062 16.910156 Z M 9.101562 7.101562 L 9.101562 5.867188 L 15.722656 4.996094 L 15.722656 6.230469 Z M 9.101562 7.101562"/>
</svg>

<svg xmlns="http://www.w3.org/2000/svg" width="32" height="32" viewBox="0 0 24 24">
    <path d="M21.633 13.133a1.238 1.238 0 0 0-1.746 0l-6.371 6.37-.88 3.22-.214.215a.408.408 0 0 0 0 .578l-.004.007h.008a.421.421 0 0 0 .289.118c.105 0 .215-.04.293-.121l.215-.215 3.218-.875 6.372-6.371c.48-.48.48-1.266 0-1.747zm-7.16 6.586l4.238-4.239 1.754 1.754-4.238 4.239zm-.375.797l1.332 1.332-1.832.5zm8.129-5.043l-1.176 1.175-1.758-1.753 1.176-1.176c.16-.16.418-.16.578 0l1.18 1.18a.41.41 0 0 1 0 .574zm0 0"/>
    <path d="M23.586.36H.414A.412.412 0 0 0 0 .772V20.22c0 .23.184.414.414.414h11.172a.414.414 0 0 0 0-.828H.828V1.184h22.344v12a.414.414 0 0 0 .828 0V.774a.412.412 0 0 0-.414-.415zm0 0"/>
    <path d="M14.625 10.7c-1.441 0-2.617 1.066-2.617 2.37 0 .645.277 1.246.781 1.696.078.07.18.105.277.105a.408.408 0 0 0 .309-.14.41.41 0 0 0-.035-.583c-.324-.293-.504-.671-.504-1.078 0-.851.8-1.543 1.789-1.543.465 0 .906.157 1.246.442a.41.41 0 0 0 .672-.371.116.116 0 0 0 .008-.04V4.524a.41.41 0 0 0-.14-.308.421.421 0 0 0-.329-.102l-7.445.98a.413.413 0 0 0-.36.41v8.044a2.834 2.834 0 0 0-1.863-.684c-1.484 0-2.691 1.094-2.691 2.438s1.207 2.437 2.691 2.437c1.484 0 2.688-1.093 2.688-2.437V7.937l6.62-.87v3.863c-.34-.145-.71-.23-1.097-.23zm-8.21 6.21c-1.028 0-1.864-.723-1.864-1.61 0-.886.836-1.609 1.863-1.609 1.027 0 1.863.723 1.863 1.61 0 .886-.836 1.61-1.863 1.61zm2.687-9.808V5.867l6.62-.87V6.23zm0 0"/>
</svg>
